public/images/check-icon.svg

<svg fill="none" height="12" viewBox="0 0 25 19" width="20" xmlns="http://www.w3.org/2000/svg"><path d="m8.4911 18.4553-8.124999-8.125c-.488135-.48816-.488135-1.27961 0-1.7678l1.767729-1.76777c.48813-.48819 1.27963-.48819 1.76777 0l5.47339 5.47337 11.72341-11.723372c.4881-.4881347 1.2796-.4881347 1.7678 0l1.7677 1.767772c.4881.48814.4881 1.27959 0 1.76777l-14.375 14.37503c-.48821.4882-1.27966.4882-1.7678 0z" fill="#52503b"/></svg>

<svg width="20" height="12" viewBox="0 0 25 19" fill="none" xmlns="http://www.w3.org/2000/svg">
<path d="M8.4911 18.4553L0.366101 10.3303C-0.122034 9.84214 -0.122034 9.05069 0.366101 8.5625L2.13383 6.79473C2.62196 6.30654 3.41346 6.30654 3.9016 6.79473L9.37499 12.2681L21.0984 0.544728C21.5865 0.0565933 22.378 0.0565933 22.8662 0.544728L24.6339 2.3125C25.122 2.80064 25.122 3.59209 24.6339 4.08027L10.2589 18.4553C9.77069 18.9435 8.97924 18.9435 8.4911 18.4553Z" fill="#52503B"/>
</svg>
